X:1
T:Bunjie's Dilemma
C:Charlie Soane
D:Filska "Time and Tide"
S:http://www.shetland-music.com/mp3down.htm
Z:Steve Wyrick  scots-l 2002-7-31
L:1/8
%Q:460
M:C
R:Reel
K:Dmin
fe|d3e dcAG|FDDE FGA=B|ccec gcec|GAGF ECCE|!
D3E F2FG|AGAc d3e|fedc Afef|d2D2D2:|!
fg|agfe defg|afdf afdf|gece gece|GAGF ECCE|!
D3E F2FG|AGAc d3e|fedc Afef|d2D2D2:|!
